static/assets/images/networks/zksync-era.svg

<svg width="256" height="256" viewBox="0 0 256 256" fill="none" xmlns="http://www.w3.org/2000/svg">
<path d="M128 256C198.692 256 256 198.692 256 128C256 57.3075 198.692 0 128 0C57.3075 0 0 57.3075 0 128C0 198.692 57.3075 256 128 256Z" fill="white"/>
<path fill-rule="evenodd" clip-rule="evenodd" d="M227 127.762L170.84 71V112.56L115.084 154.167L170.84 154.216V184.5L227 127.762Z" fill="#1E225A"/>
<path fill-rule="evenodd" clip-rule="evenodd" d="M29 127.738L85.1598 184.476V143.253L140.915 101.308L85.1598 101.26V71L29 127.738Z" fill="#1E225A"/>
</svg>

<svg xmlns="http://www.w3.org/2000/svg" fill="none" viewBox="0 0 256 256"><path fill="#fff" d="M128 256c70.692 0 128-57.308 128-128S198.692 0 128 0 0 57.308 0 128s57.308 128 128 128"/><path fill="#1E225A" fill-rule="evenodd" d="M227 127.762 170.84 71v41.56l-55.756 41.607 55.756.049V184.5zm-198-.024 56.16 56.738v-41.223l55.755-41.945-55.755-.048V71z" clip-rule="evenodd"/></svg>
